X:484
T:
R:vals
S:Efter »Florsen» i Burs.
O:Gotland, Burs
M:3/4
L:1/8
K:F
C2|F2 A2 c2|f2 a2 f2|c2 e2 g2|gbeg f2|F2 A2 c2|f2 a2 f2 |c2 egbg|f4::
c2|a4 c2|BAGA B2|g3 ceg|fefgab|a4 c2|BAGA B2|g3 ceg|f4:|

